M109 S220
;Generated with Doodle3D
G21
G91
M107
G28 X0 Y0
G28 Z0
G1 Z15 F9000
G92 E0
G1 F200 E10
G92 E0
G92 X-100 Y-100 E0
G1 F9000
G90
M117 Printing Doodle...  
G0 E-3.000 F3000.000
G0 X-3.900 Y17.250 Z0.200 F12000.000
G0 E0.000 F3000.000
G1 X3.000 Y14.550 Z0.200 F1500.000 E0.364
G1 X5.700 Y14.250 Z0.200 F1500.000 E0.497
G1 X7.800 Y14.250 Z0.200 F1500.000 E0.601
G1 X9.900 Y14.250 Z0.200 F1500.000 E0.704
G1 X12.000 Y14.550 Z0.200 F1500.000 E0.808
G1 X13.500 Y15.750 Z0.200 F1500.000 E0.902
G1 X15.600 Y17.250 Z0.200 F1500.000 E1.029
G1 X17.400 Y18.750 Z0.200 F1500.000 E1.144
G1 X18.900 Y19.350 Z0.200 F1500.000 E1.224
G1 X20.400 Y19.950 Z0.200 F1500.000 E1.303
G1 X22.500 Y19.950 Z0.200 F1500.000 E1.406
G1 X24.000 Y19.350 Z0.200 F1500.000 E1.485
G1 X26.100 Y17.550 Z0.200 F1500.000 E1.621
G1 X27.600 Y14.850 Z0.200 F1500.000 E1.773
G1 X28.500 Y11.250 Z0.200 F1500.000 E1.955
G1 X29.400 Y7.050 Z0.200 F1500.000 E2.166
G1 X29.400 Y4.650 Z0.200 F1500.000 E2.284
G1 X29.400 Y0.150 Z0.200 F1500.000 E2.505
G1 X29.400 Y-3.750 Z0.200 F1500.000 E2.697
G1 X27.600 Y-7.650 Z0.200 F1500.000 E2.908
G1 X24.000 Y-12.450 Z0.200 F1500.000 E3.203
G1 X19.200 Y-17.250 Z0.200 F1500.000 E3.536
G1 X13.500 Y-20.850 Z0.200 F1500.000 E3.867
G1 X6.600 Y-22.950 Z0.200 F1500.000 E4.221
G1 X3.300 Y-23.250 Z0.200 F1500.000 E4.384
G1 X-4.200 Y-23.550 Z0.200 F1500.000 E4.753
G1 X-12.000 Y-20.250 Z0.200 F1500.000 E5.169
G1 X-17.700 Y-16.350 Z0.200 F1500.000 E5.508
G1 X-22.200 Y-11.550 Z0.200 F1500.000 E5.831
G1 X-24.600 Y-8.550 Z0.200 F1500.000 E6.020
G1 X-27.300 Y-4.650 Z0.200 F1500.000 E6.253
G1 X-28.800 Y-1.350 Z0.200 F1500.000 E6.431
G1 X-29.400 Y2.250 Z0.200 F1500.000 E6.611
G1 X-29.400 Y5.550 Z0.200 F1500.000 E6.773
G1 X-29.400 Y8.550 Z0.200 F1500.000 E6.920
G1 X-29.400 Y10.650 Z0.200 F1500.000 E7.023
G1 X-29.400 Y12.750 Z0.200 F1500.000 E7.126
G1 X-28.500 Y14.850 Z0.200 F1500.000 E7.239
G1 X-27.900 Y16.950 Z0.200 F1500.000 E7.346
G1 X-27.000 Y18.450 Z0.200 F1500.000 E7.432
G1 X-25.500 Y20.250 Z0.200 F1500.000 E7.547
G1 X-24.300 Y21.450 Z0.200 F1500.000 E7.630
G1 X-22.500 Y22.350 Z0.200 F1500.000 E7.729
G1 X-20.100 Y23.250 Z0.200 F1500.000 E7.855
G1 X-18.600 Y23.550 Z0.200 F1500.000 E7.930
G1 X-15.600 Y23.550 Z0.200 F1500.000 E8.078
G1 X-13.800 Y23.550 Z0.200 F1500.000 E8.166
G1 X-10.500 Y22.650 Z0.200 F1500.000 E8.334
G1 X-8.700 Y21.450 Z0.200 F1500.000 E8.440
G1 X-6.600 Y19.950 Z0.200 F1500.000 E8.567
G1 X-4.500 Y18.750 Z0.200 F1500.000 E8.686
G1 X-2.700 Y17.550 Z0.200 F1500.000 E8.792
G1 X-1.200 Y16.350 Z0.200 F1500.000 E8.886
G0 X-4.089 Y17.206 Z0.400 F12000.000
G1 X2.840 Y14.582 Z0.404 F1500.000 E9.250
G1 X5.543 Y14.312 Z0.407 F1500.000 E9.384
G1 X7.643 Y14.335 Z0.411 F1500.000 E9.487
G1 X9.743 Y14.358 Z0.415 F1500.000 E9.590
G1 X11.839 Y14.681 Z0.419 F1500.000 E9.694
G1 X13.326 Y15.898 Z0.422 F1500.000 E9.789
G1 X15.409 Y17.421 Z0.426 F1500.000 E9.916
G1 X17.193 Y18.940 Z0.430 F1500.000 E10.031
G1 X18.686 Y19.557 Z0.433 F1500.000 E10.110
G1 X20.179 Y20.173 Z0.437 F1500.000 E10.189
G1 X22.279 Y20.196 Z0.441 F1500.000 E10.293
G1 X23.786 Y19.613 Z0.444 F1500.000 E10.372
G1 X25.905 Y17.836 Z0.448 F1500.000 E10.508
G1 X27.435 Y15.153 Z0.452 F1500.000 E10.659
G1 X28.375 Y11.563 Z0.456 F1500.000 E10.842
G1 X29.321 Y7.373 Z0.459 F1500.000 E11.053
G1 X29.347 Y4.973 Z0.463 F1500.000 E11.171
G1 X29.397 Y0.473 Z0.467 F1500.000 E11.392
G1 X29.439 Y-3.426 Z0.470 F1500.000 E11.583
G1 X27.682 Y-7.346 Z0.474 F1500.000 E11.794
G1 X24.135 Y-12.185 Z0.478 F1500.000 E12.089
G1 X19.389 Y-17.038 Z0.481 F1500.000 E12.422
G1 X13.728 Y-20.700 Z0.485 F1500.000 E12.754
G1 X6.852 Y-22.876 Z0.489 F1500.000 E13.108
G1 X3.555 Y-23.212 Z0.493 F1500.000 E13.271
G1 X-3.941 Y-23.595 Z0.496 F1500.000 E13.639
G1 X-11.777 Y-20.381 Z0.500 F1500.000 E14.055
G1 X-17.519 Y-16.544 Z0.504 F1500.000 E14.395
G1 X-22.072 Y-11.793 Z0.507 F1500.000 E14.718
G1 X-24.504 Y-8.820 Z0.511 F1500.000 E14.907
G1 X-27.247 Y-4.950 Z0.515 F1500.000 E15.140
G1 X-28.783 Y-1.667 Z0.519 F1500.000 E15.318
G1 X-29.423 Y1.927 Z0.522 F1500.000 E15.497
G1 X-29.459 Y5.226 Z0.526 F1500.000 E15.659
G1 X-29.492 Y8.226 Z0.530 F1500.000 E15.806
G1 X-29.515 Y10.326 Z0.533 F1500.000 E15.910
G1 X-29.538 Y12.426 Z0.537 F1500.000 E16.013
G1 X-28.662 Y14.536 Z0.541 F1500.000 E16.125
G1 X-28.085 Y16.642 Z0.544 F1500.000 E16.232
G1 X-27.201 Y18.152 Z0.548 F1500.000 E16.318
G1 X-25.721 Y19.968 Z0.552 F1500.000 E16.433
G1 X-24.534 Y21.181 Z0.556 F1500.000 E16.517
G1 X-22.744 Y22.101 Z0.559 F1500.000 E16.616
G1 X-20.354 Y23.028 Z0.563 F1500.000 E16.741
G1 X-18.858 Y23.344 Z0.567 F1500.000 E16.817
G1 X-15.858 Y23.377 Z0.570 F1500.000 E16.964
G1 X-14.058 Y23.397 Z0.574 F1500.000 E17.052
G1 X-10.748 Y22.533 Z0.578 F1500.000 E17.220
G1 X-8.935 Y21.353 Z0.581 F1500.000 E17.327
G1 X-6.819 Y19.876 Z0.585 F1500.000 E17.453
G1 X-4.706 Y18.699 Z0.589 F1500.000 E17.572
G1 X-2.893 Y17.519 Z0.593 F1500.000 E17.679
G1 X-1.380 Y16.336 Z0.596 F1500.000 E17.773
M106
G0 X-4.278 Y17.160 Z0.600 F12000.000
G1 X2.679 Y14.612 Z0.604 F3000.000 E18.137
G1 X5.385 Y14.372 Z0.607 F3000.000 E18.270
G1 X7.485 Y14.418 Z0.611 F3000.000 E18.374
G1 X9.584 Y14.464 Z0.615 F3000.000 E18.477
G1 X11.677 Y14.810 Z0.619 F3000.000 E18.581
G1 X13.150 Y16.043 Z0.622 F3000.000 E18.675
G1 X15.217 Y17.589 Z0.626 F3000.000 E18.802
G1 X16.983 Y19.128 Z0.630 F3000.000 E18.917
G1 X18.470 Y19.761 Z0.633 F3000.000 E18.996
G1 X19.956 Y20.394 Z0.637 F3000.000 E19.076
G1 X22.056 Y20.440 Z0.641 F3000.000 E19.179
G1 X23.569 Y19.873 Z0.644 F3000.000 E19.258
G1 X25.708 Y18.120 Z0.648 F3000.000 E19.394
G1 X27.267 Y15.453 Z0.652 F3000.000 E19.546
G1 X28.246 Y11.874 Z0.656 F3000.000 E19.728
G1 X29.238 Y7.695 Z0.659 F3000.000 E19.939
G1 X29.291 Y5.295 Z0.663 F3000.000 E20.057
G1 X29.390 Y0.797 Z0.667 F3000.000 E20.278
G1 X29.475 Y-3.102 Z0.670 F3000.000 E20.470
G1 X27.762 Y-7.041 Z0.674 F3000.000 E20.681
G1 X24.268 Y-11.919 Z0.678 F3000.000 E20.975
G1 X19.575 Y-16.824 Z0.681 F3000.000 E21.309
G1 X13.955 Y-20.548 Z0.685 F3000.000 E21.640
G1 X7.103 Y-22.799 Z0.689 F3000.000 E21.994
G1 X3.811 Y-23.172 Z0.693 F3000.000 E22.157
G1 X-3.681 Y-23.637 Z0.696 F3000.000 E22.526
G1 X-11.552 Y-20.509 Z0.700 F3000.000 E22.942
G1 X-17.336 Y-16.735 Z0.704 F3000.000 E23.281
G1 X-21.941 Y-12.035 Z0.707 F3000.000 E23.604
G1 X-24.406 Y-9.089 Z0.711 F3000.000 E23.793
G1 X-27.191 Y-5.249 Z0.715 F3000.000 E24.026
G1 X-28.763 Y-1.983 Z0.719 F3000.000 E24.204
G1 X-29.442 Y1.603 Z0.722 F3000.000 E24.383
G1 X-29.515 Y4.902 Z0.726 F3000.000 E24.546
G1 X-29.581 Y7.901 Z0.730 F3000.000 E24.693
G1 X-29.627 Y10.001 Z0.733 F3000.000 E24.796
G1 X-29.673 Y12.100 Z0.737 F3000.000 E24.899
G1 X-28.820 Y14.220 Z0.741 F3000.000 E25.012
G1 X-28.266 Y16.332 Z0.744 F3000.000 E25.119
G1 X-27.399 Y17.852 Z0.748 F3000.000 E25.205
G1 X-25.939 Y19.684 Z0.752 F3000.000 E25.320
G1 X-24.766 Y20.910 Z0.756 F3000.000 E25.403
G1 X-22.986 Y21.850 Z0.759 F3000.000 E25.502
G1 X-20.606 Y22.802 Z0.763 F3000.000 E25.628
G1 X-19.113 Y23.135 Z0.767 F3000.000 E25.703
G1 X-16.114 Y23.201 Z0.770 F3000.000 E25.850
G1 X-14.315 Y23.241 Z0.774 F3000.000 E25.939
G1 X-10.996 Y22.414 Z0.778 F3000.000 E26.107
G1 X-9.170 Y21.253 Z0.781 F3000.000 E26.213
G1 X-7.037 Y19.800 Z0.785 F3000.000 E26.340
G1 X-4.911 Y18.646 Z0.789 F3000.000 E26.459
G1 X-3.085 Y17.486 Z0.793 F3000.000 E26.565
G1 X-1.559 Y16.320 Z0.796 F3000.000 E26.659
G0 X-4.467 Y17.112 Z0.800 F12000.000
G1 X2.518 Y14.641 Z0.804 F3000.000 E27.023
G1 X5.227 Y14.430 Z0.807 F3000.000 E27.157
G1 X7.326 Y14.500 Z0.811 F3000.000 E27.260
G1 X9.425 Y14.569 Z0.815 F3000.000 E27.363
G1 X11.513 Y14.938 Z0.819 F3000.000 E27.467
G1 X12.973 Y16.187 Z0.822 F3000.000 E27.562
G1 X15.022 Y17.755 Z0.826 F3000.000 E27.688
G1 X16.772 Y19.314 Z0.830 F3000.000 E27.804
G1 X18.251 Y19.963 Z0.833 F3000.000 E27.883
G1 X19.731 Y20.612 Z0.837 F3000.000 E27.962
G1 X21.830 Y20.681 Z0.841 F3000.000 E28.065
G1 X23.349 Y20.131 Z0.844 F3000.000 E28.145
G1 X25.507 Y18.401 Z0.848 F3000.000 E28.281
G1 X27.095 Y15.752 Z0.852 F3000.000 E28.432
G1 X28.113 Y12.184 Z0.856 F3000.000 E28.615
G1 X29.151 Y8.016 Z0.859 F3000.000 E28.826
G1 X29.231 Y5.617 Z0.863 F3000.000 E28.944
G1 X29.379 Y1.120 Z0.867 F3000.000 E29.165
G1 X29.508 Y-2.778 Z0.870 F3000.000 E29.356
G1 X27.837 Y-6.735 Z0.874 F3000.000 E29.567
G1 X24.398 Y-11.652 Z0.878 F3000.000 E29.862
G1 X19.759 Y-16.607 Z0.881 F3000.000 E30.195
G1 X14.180 Y-20.393 Z0.885 F3000.000 E30.527
G1 X7.353 Y-22.720 Z0.889 F3000.000 E30.881
G1 X4.065 Y-23.128 Z0.893 F3000.000 E31.044
G1 X-3.421 Y-23.676 Z0.896 F3000.000 E31.412
G1 X-11.325 Y-20.635 Z0.900 F3000.000 E31.828
G1 X-17.151 Y-16.925 Z0.904 F3000.000 E32.168
G1 X-21.807 Y-12.276 Z0.907 F3000.000 E32.491
G1 X-24.305 Y-9.357 Z0.911 F3000.000 E32.680
G1 X-27.132 Y-5.548 Z0.915 F3000.000 E32.913
G1 X-28.740 Y-2.299 Z0.919 F3000.000 E33.091
G1 X-29.458 Y1.279 Z0.922 F3000.000 E33.270
G1 X-29.567 Y4.577 Z0.926 F3000.000 E33.432
G1 X-29.666 Y7.576 Z0.930 F3000.000 E33.579
G1 X-29.735 Y9.674 Z0.933 F3000.000 E33.683
G1 X-29.805 Y11.773 Z0.937 F3000.000 E33.786
G1 X-28.974 Y13.902 Z0.941 F3000.000 E33.898
G1 X-28.444 Y16.020 Z0.944 F3000.000 E34.005
G1 X-27.594 Y17.549 Z0.948 F3000.000 E34.091
G1 X-26.154 Y19.398 Z0.952 F3000.000 E34.206
G1 X-24.994 Y20.637 Z0.956 F3000.000 E34.290
G1 X-23.225 Y21.596 Z0.959 F3000.000 E34.389
G1 X-20.856 Y22.574 Z0.963 F3000.000 E34.514
G1 X-19.367 Y22.924 Z0.967 F3000.000 E34.590
G1 X-16.368 Y23.023 Z0.970 F3000.000 E34.737
G1 X-14.569 Y23.082 Z0.974 F3000.000 E34.825
G1 X-11.241 Y22.291 Z0.978 F3000.000 E34.993
G1 X-9.403 Y21.151 Z0.981 F3000.000 E35.100
G1 X-7.255 Y19.721 Z0.985 F3000.000 E35.226
G1 X-5.116 Y18.591 Z0.989 F3000.000 E35.345
G1 X-3.277 Y17.451 Z0.993 F3000.000 E35.452
G1 X-1.739 Y16.302 Z0.996 F3000.000 E35.546
G0 X-4.655 Y17.062 Z1.000 F12000.000
G1 X2.357 Y14.668 Z1.004 F3000.000 E35.910
G1 X5.068 Y14.487 Z1.007 F3000.000 E36.043
G1 X7.166 Y14.579 Z1.011 F3000.000 E36.146
G1 X9.264 Y14.672 Z1.015 F3000.000 E36.250
G1 X11.349 Y15.064 Z1.019 F3000.000 E36.354
G1 X12.794 Y16.328 Z1.022 F3000.000 E36.448
G1 X14.826 Y17.919 Z1.026 F3000.000 E36.575
G1 X16.559 Y19.497 Z1.030 F3000.000 E36.690
G1 X18.031 Y20.162 Z1.033 F3000.000 E36.769
G1 X19.503 Y20.828 Z1.037 F3000.000 E36.849
G1 X21.601 Y20.920 Z1.041 F3000.000 E36.952
G1 X23.126 Y20.387 Z1.044 F3000.000 E37.031
G1 X25.303 Y18.681 Z1.048 F3000.000 E37.167
G1 X26.920 Y16.049 Z1.052 F3000.000 E37.319
G1 X27.978 Y12.492 Z1.056 F3000.000 E37.501
G1 X29.062 Y8.336 Z1.059 F3000.000 E37.712
G1 X29.167 Y5.938 Z1.063 F3000.000 E37.830
G1 X29.365 Y1.443 Z1.067 F3000.000 E38.051
G1 X29.536 Y-2.453 Z1.070 F3000.000 E38.243
G1 X27.910 Y-6.429 Z1.074 F3000.000 E38.454
G1 X24.524 Y-11.382 Z1.078 F3000.000 E38.748
G1 X19.940 Y-16.389 Z1.081 F3000.000 E39.082
G1 X14.404 Y-20.236 Z1.085 F3000.000 E39.413
G1 X7.603 Y-22.638 Z1.089 F3000.000 E39.767
G1 X4.319 Y-23.082 Z1.093 F3000.000 E39.930
G1 X-3.160 Y-23.712 Z1.096 F3000.000 E40.299
G1 X-11.098 Y-20.758 Z1.100 F3000.000 E40.715
G1 X-16.964 Y-17.113 Z1.104 F3000.000 E41.054
G1 X-21.671 Y-12.515 Z1.107 F3000.000 E41.377
G1 X-24.200 Y-9.624 Z1.111 F3000.000 E41.566
G1 X-27.069 Y-5.846 Z1.115 F3000.000 E41.799
G1 X-28.713 Y-2.615 Z1.119 F3000.000 E41.977
G1 X-29.471 Y0.955 Z1.122 F3000.000 E42.156
G1 X-29.616 Y4.252 Z1.126 F3000.000 E42.319
G1 X-29.748 Y7.249 Z1.130 F3000.000 E42.466
G1 X-29.840 Y9.347 Z1.133 F3000.000 E42.569
G1 X-29.932 Y11.445 Z1.137 F3000.000 E42.672
G1 X-29.125 Y13.582 Z1.141 F3000.000 E42.784
G1 X-28.618 Y15.707 Z1.144 F3000.000 E42.892
G1 X-27.785 Y17.245 Z1.148 F3000.000 E42.978
G1 X-26.366 Y19.109 Z1.152 F3000.000 E43.093
G1 X-25.220 Y20.361 Z1.156 F3000.000 E43.176
G1 X-23.461 Y21.339 Z1.159 F3000.000 E43.275
G1 X-21.103 Y22.344 Z1.163 F3000.000 E43.401
G1 X-19.618 Y22.709 Z1.167 F3000.000 E43.476
G1 X-16.621 Y22.841 Z1.170 F3000.000 E43.623
G1 X-14.822 Y22.920 Z1.174 F3000.000 E43.712
G1 X-11.486 Y22.166 Z1.178 F3000.000 E43.880
G1 X-9.635 Y21.047 Z1.181 F3000.000 E43.986
G1 X-7.471 Y19.640 Z1.185 F3000.000 E44.113
G1 X-5.320 Y18.534 Z1.189 F3000.000 E44.232
G1 X-3.469 Y17.414 Z1.193 F3000.000 E44.338
G1 X-1.918 Y16.281 Z1.196 F3000.000 E44.432
G0 X-4.842 Y17.010 Z1.200 F12000.000
G1 X2.196 Y14.693 Z1.204 F3000.000 E44.796
G1 X4.908 Y14.542 Z1.207 F3000.000 E44.930
G1 X7.005 Y14.657 Z1.211 F3000.000 E45.033
G1 X9.102 Y14.773 Z1.215 F3000.000 E45.136
G1 X11.182 Y15.188 Z1.219 F3000.000 E45.240
G1 X12.614 Y16.468 Z1.222 F3000.000 E45.335
G1 X14.628 Y18.081 Z1.226 F3000.000 E45.461
G1 X16.343 Y19.678 Z1.230 F3000.000 E45.577
G1 X17.808 Y20.360 Z1.233 F3000.000 E45.656
G1 X19.273 Y21.041 Z1.237 F3000.000 E45.735
G1 X21.370 Y21.156 Z1.241 F3000.000 E45.838
G1 X22.900 Y20.640 Z1.244 F3000.000 E45.918
G1 X25.096 Y18.958 Z1.248 F3000.000 E46.054
G1 X26.742 Y16.344 Z1.252 F3000.000 E46.205
G1 X27.839 Y12.799 Z1.256 F3000.000 E46.388
G1 X28.968 Y8.655 Z1.259 F3000.000 E46.599
G1 X29.100 Y6.259 Z1.263 F3000.000 E46.717
G1 X29.347 Y1.766 Z1.267 F3000.000 E46.938
G1 X29.562 Y-2.128 Z1.270 F3000.000 E47.129
G1 X27.979 Y-6.121 Z1.274 F3000.000 E47.340
G1 X24.648 Y-11.112 Z1.278 F3000.000 E47.635
G1 X20.119 Y-16.169 Z1.281 F3000.000 E47.968
G1 X14.626 Y-20.077 Z1.285 F3000.000 E48.300
G1 X7.851 Y-22.553 Z1.289 F3000.000 E48.654
G1 X4.573 Y-23.033 Z1.293 F3000.000 E48.817
G1 X-2.899 Y-23.745 Z1.296 F3000.000 E49.185
G1 X-10.869 Y-20.879 Z1.300 F3000.000 E49.601
G1 X-16.775 Y-17.298 Z1.304 F3000.000 E49.941
G1 X-21.532 Y-12.753 Z1.307 F3000.000 E50.264
G1 X-24.093 Y-9.889 Z1.311 F3000.000 E50.453
G1 X-27.003 Y-6.143 Z1.315 F3000.000 E50.686
G1 X-28.682 Y-2.931 Z1.319 F3000.000 E50.864
G1 X-29.479 Y0.631 Z1.322 F3000.000 E51.043
G1 X-29.661 Y3.926 Z1.326 F3000.000 E51.205
G1 X-29.825 Y6.921 Z1.330 F3000.000 E51.352
G1 X-29.941 Y9.018 Z1.333 F3000.000 E51.456
G1 X-30.056 Y11.115 Z1.337 F3000.000 E51.559
G1 X-29.273 Y13.261 Z1.341 F3000.000 E51.671
G1 X-28.789 Y15.391 Z1.344 F3000.000 E51.778
G1 X-27.973 Y16.938 Z1.348 F3000.000 E51.864
G1 X-26.574 Y18.818 Z1.352 F3000.000 E51.979
G1 X-25.442 Y20.082 Z1.356 F3000.000 E52.063
G1 X-23.694 Y21.080 Z1.359 F3000.000 E52.161
G1 X-21.347 Y22.110 Z1.363 F3000.000 E52.287
G1 X-19.866 Y22.492 Z1.367 F3000.000 E52.363
G1 X-16.871 Y22.657 Z1.370 F3000.000 E52.510
G1 X-15.073 Y22.756 Z1.374 F3000.000 E52.598
G1 X-11.729 Y22.039 Z1.378 F3000.000 E52.766
G1 X-9.866 Y20.939 Z1.381 F3000.000 E52.873
G1 X-7.687 Y19.557 Z1.385 F3000.000 E52.999
G1 X-5.524 Y18.474 Z1.389 F3000.000 E53.118
G1 X-3.660 Y17.375 Z1.393 F3000.000 E53.224
G1 X-2.097 Y16.259 Z1.396 F3000.000 E53.319
G0 X-5.029 Y16.955 Z1.400 F12000.000
G1 X2.034 Y14.716 Z1.404 F3000.000 E53.683
G1 X4.748 Y14.595 Z1.407 F3000.000 E53.816
G1 X6.843 Y14.733 Z1.411 F3000.000 E53.919
G1 X8.939 Y14.872 Z1.415 F3000.000 E54.023
G1 X11.014 Y15.310 Z1.419 F3000.000 E54.127
G1 X12.432 Y16.606 Z1.422 F3000.000 E54.221
G1 X14.429 Y18.241 Z1.426 F3000.000 E54.348
G1 X16.126 Y19.857 Z1.430 F3000.000 E54.463
G1 X17.583 Y20.554 Z1.433 F3000.000 E54.542
G1 X19.040 Y21.252 Z1.437 F3000.000 E54.622
G1 X21.136 Y21.390 Z1.441 F3000.000 E54.725
G1 X22.672 Y20.890 Z1.444 F3000.000 E54.804
G1 X24.886 Y19.233 Z1.448 F3000.000 E54.940
G1 X26.561 Y16.638 Z1.452 F3000.000 E55.092
G1 X27.696 Y13.105 Z1.456 F3000.000 E55.274
G1 X28.871 Y8.973 Z1.459 F3000.000 E55.485
G1 X29.029 Y6.579 Z1.463 F3000.000 E55.603
G1 X29.326 Y2.088 Z1.467 F3000.000 E55.824
G1 X29.583 Y-1.803 Z1.470 F3000.000 E56.016
G1 X28.044 Y-5.813 Z1.474 F3000.000 E56.227
G1 X24.769 Y-10.840 Z1.478 F3000.000 E56.521
G1 X20.296 Y-15.946 Z1.481 F3000.000 E56.855
G1 X14.845 Y-19.914 Z1.485 F3000.000 E57.186
G1 X8.099 Y-22.465 Z1.489 F3000.000 E57.540
G1 X4.826 Y-22.982 Z1.493 F3000.000 E57.703
G1 X-2.638 Y-23.776 Z1.496 F3000.000 E58.072
G1 X-10.639 Y-20.997 Z1.500 F3000.000 E58.488
G1 X-16.583 Y-17.482 Z1.504 F3000.000 E58.827
G1 X-21.390 Y-12.989 Z1.507 F3000.000 E59.150
G1 X-23.983 Y-10.154 Z1.511 F3000.000 E59.339
G1 X-26.934 Y-6.440 Z1.515 F3000.000 E59.572
G1 X-28.648 Y-3.246 Z1.519 F3000.000 E59.750
G1 X-29.484 Y0.306 Z1.522 F3000.000 E59.929
