M109 S220
;Generated with Doodle3D
G21
G91
M107
G28 X0 Y0
G28 Z0
G1 Z15 F9000
G92 E0
G1 F200 E10
G92 E0
G92 X-100 Y-100 E0
G1 F9000
G90
M117 Printing Doodle...  
G0 E-3.000 F3000.000
G0 X1.800 Y6.600 Z0.200 F12000.000
G0 E0.000 F3000.000
G1 X1.200 Y6.600 Z0.200 F1500.000 E0.029
G1 X-1.200 Y6.600 Z0.200 F1500.000 E0.147
G1 X-3.600 Y4.800 Z0.200 F1500.000 E0.295
G1 X-4.800 Y3.000 Z0.200 F1500.000 E0.401
G1 X-5.700 Y1.200 Z0.200 F1500.000 E0.500
G1 X-6.000 Y-1.800 Z0.200 F1500.000 E0.648
G1 X-6.000 Y-3.600 Z0.200 F1500.000 E0.736
G1 X-4.500 Y-5.100 Z0.200 F1500.000 E0.841
G1 X-1.500 Y-6.300 Z0.200 F1500.000 E0.999
G1 X0.000 Y-6.600 Z0.200 F1500.000 E1.074
G1 X2.100 Y-6.600 Z0.200 F1500.000 E1.178
G1 X4.500 Y-6.600 Z0.200 F1500.000 E1.296
G1 X6.000 Y-5.700 Z0.200 F1500.000 E1.381
G1 X6.000 Y-3.900 Z0.200 F1500.000 E1.470
G1 X3.900 Y-1.800 Z0.200 F1500.000 E1.616
G1 X2.100 Y-0.900 Z0.200 F1500.000 E1.715
G1 X0.600 Y-0.600 Z0.200 F1500.000 E1.790
G1 X-1.200 Y-0.600 Z0.200 F1500.000 E1.878
G1 X-3.000 Y-0.600 Z0.200 F1500.000 E1.967
G0 E-1.033 F3000.000
G0 X1.714 Y6.623 Z0.400 F12000.000
G0 E1.967 F3000.000
G1 X1.115 Y6.615 Z0.410 F1500.000 E1.996
G1 X-1.285 Y6.584 Z0.420 F1500.000 E2.114
G1 X-3.662 Y4.753 Z0.430 F1500.000 E2.261
G1 X-4.838 Y2.938 Z0.440 F1500.000 E2.368
G1 X-5.715 Y1.126 Z0.450 F1500.000 E2.466
G1 X-5.976 Y-1.877 Z0.460 F1500.000 E2.615
G1 X-5.953 Y-3.677 Z0.470 F1500.000 E2.703
G1 X-4.434 Y-5.158 Z0.480 F1500.000 E2.807
G1 X-1.418 Y-6.319 Z0.490 F1500.000 E2.966
G1 X0.085 Y-6.599 Z0.500 F1500.000 E3.041
G1 X2.185 Y-6.572 Z0.510 F1500.000 E3.144
G1 X4.585 Y-6.541 Z0.520 F1500.000 E3.262
G1 X6.073 Y-5.622 Z0.530 F1500.000 E3.348
G1 X6.050 Y-3.822 Z0.540 F1500.000 E3.436
G1 X3.923 Y-1.749 Z0.550 F1500.000 E3.582
G1 X2.111 Y-0.873 Z0.560 F1500.000 E3.681
G1 X0.608 Y-0.592 Z0.570 F1500.000 E3.756
G1 X-1.192 Y-0.615 Z0.580 F1500.000 E3.845
G1 X-2.992 Y-0.639 Z0.590 F1500.000 E3.933
M106
G0 E0.933 F3000.000
G0 X1.629 Y6.644 Z0.600 F12000.000
G0 E3.933 F3000.000
G1 X1.029 Y6.629 Z0.610 F3000.000 E3.963
G1 X-1.370 Y6.567 Z0.620 F3000.000 E4.081
G1 X-3.723 Y4.705 Z0.630 F3000.000 E4.228
G1 X-4.876 Y2.875 Z0.640 F3000.000 E4.334
G1 X-5.729 Y1.052 Z0.650 F3000.000 E4.433
G1 X-5.951 Y-1.955 Z0.660 F3000.000 E4.581
G1 X-5.905 Y-3.754 Z0.670 F3000.000 E4.670
G1 X-4.367 Y-5.215 Z0.680 F3000.000 E4.774
G1 X-1.336 Y-6.337 Z0.690 F3000.000 E4.932
G1 X0.171 Y-6.598 Z0.700 F3000.000 E5.008
G1 X2.270 Y-6.543 Z0.710 F3000.000 E5.111
G1 X4.669 Y-6.481 Z0.720 F3000.000 E5.229
G1 X6.145 Y-5.543 Z0.730 F3000.000 E5.315
G1 X6.099 Y-3.743 Z0.740 F3000.000 E5.403
G1 X3.945 Y-1.698 Z0.750 F3000.000 E5.549
G1 X2.123 Y-0.845 Z0.760 F3000.000 E5.648
G1 X0.615 Y-0.584 Z0.770 F3000.000 E5.723
G1 X-1.184 Y-0.631 Z0.780 F3000.000 E5.811
G1 X-2.983 Y-0.677 Z0.790 F3000.000 E5.900
G0 E2.900 F3000.000
G0 X1.543 Y6.665 Z0.800 F12000.000
G0 E5.900 F3000.000
G1 X0.943 Y6.642 Z0.810 F3000.000 E5.929
G1 X-1.455 Y6.548 Z0.820 F3000.000 E6.047
G1 X-3.784 Y4.657 Z0.830 F3000.000 E6.195
G1 X-4.913 Y2.811 Z0.840 F3000.000 E6.301
G1 X-5.742 Y0.978 Z0.850 F3000.000 E6.400
G1 X-5.926 Y-2.031 Z0.860 F3000.000 E6.548
G1 X-5.856 Y-3.830 Z0.870 F3000.000 E6.636
G1 X-4.299 Y-5.271 Z0.880 F3000.000 E6.740
G1 X-1.254 Y-6.353 Z0.890 F3000.000 E6.899
G1 X0.256 Y-6.595 Z0.900 F3000.000 E6.974
G1 X2.355 Y-6.514 Z0.910 F3000.000 E7.077
G1 X4.753 Y-6.420 Z0.920 F3000.000 E7.195
G1 X6.217 Y-5.463 Z0.930 F3000.000 E7.281
G1 X6.147 Y-3.664 Z0.940 F3000.000 E7.370
G1 X3.967 Y-1.647 Z0.950 F3000.000 E7.516
G1 X2.133 Y-0.818 Z0.960 F3000.000 E7.614
G1 X0.623 Y-0.576 Z0.970 F3000.000 E7.690
G1 X-1.176 Y-0.646 Z0.980 F3000.000 E7.778
G1 X-2.974 Y-0.716 Z0.990 F3000.000 E7.866
G0 E4.866 F3000.000
G0 X1.456 Y6.684 Z1.000 F12000.000
G0 E7.866 F3000.000
G1 X0.857 Y6.653 Z1.010 F3000.000 E7.896
G1 X-1.540 Y6.529 Z1.020 F3000.000 E8.014
G1 X-3.843 Y4.607 Z1.030 F3000.000 E8.161
G1 X-4.949 Y2.748 Z1.040 F3000.000 E8.267
G1 X-5.754 Y0.904 Z1.050 F3000.000 E8.366
G1 X-5.899 Y-2.108 Z1.060 F3000.000 E8.514
G1 X-5.806 Y-3.906 Z1.070 F3000.000 E8.603
G1 X-4.230 Y-5.326 Z1.080 F3000.000 E8.707
G1 X-1.172 Y-6.369 Z1.090 F3000.000 E8.866
G1 X0.341 Y-6.591 Z1.100 F3000.000 E8.941
G1 X2.439 Y-6.483 Z1.110 F3000.000 E9.044
G1 X4.835 Y-6.358 Z1.120 F3000.000 E9.162
G1 X6.287 Y-5.382 Z1.130 F3000.000 E9.248
G1 X6.194 Y-3.584 Z1.140 F3000.000 E9.336
G1 X3.988 Y-1.596 Z1.150 F3000.000 E9.482
G1 X2.144 Y-0.790 Z1.160 F3000.000 E9.581
G1 X0.630 Y-0.568 Z1.170 F3000.000 E9.656
G1 X-1.167 Y-0.661 Z1.180 F3000.000 E9.745
G1 X-2.965 Y-0.754 Z1.190 F3000.000 E9.833
G0 E6.833 F3000.000
G0 X1.370 Y6.703 Z1.200 F12000.000
G0 E9.833 F3000.000
G1 X0.771 Y6.664 Z1.210 F3000.000 E9.862
G1 X-1.624 Y6.509 Z1.220 F3000.000 E9.980
G1 X-3.903 Y4.557 Z1.230 F3000.000 E10.128
G1 X-4.984 Y2.683 Z1.240 F3000.000 E10.234
G1 X-5.766 Y0.829 Z1.250 F3000.000 E10.333
G1 X-5.871 Y-2.184 Z1.260 F3000.000 E10.481
G1 X-5.755 Y-3.980 Z1.270 F3000.000 E10.569
G1 X-4.161 Y-5.380 Z1.280 F3000.000 E10.674
G1 X-1.090 Y-6.384 Z1.290 F3000.000 E10.832
G1 X0.427 Y-6.586 Z1.300 F3000.000 E10.907
G1 X2.522 Y-6.450 Z1.310 F3000.000 E11.011
G1 X4.917 Y-6.295 Z1.320 F3000.000 E11.128
G1 X6.356 Y-5.300 Z1.330 F3000.000 E11.214
G1 X6.240 Y-3.504 Z1.340 F3000.000 E11.303
G1 X4.008 Y-1.544 Z1.350 F3000.000 E11.449
G1 X2.154 Y-0.762 Z1.360 F3000.000 E11.548
G1 X0.638 Y-0.560 Z1.370 F3000.000 E11.623
G1 X-1.159 Y-0.676 Z1.380 F3000.000 E11.711
G1 X-2.955 Y-0.793 Z1.390 F3000.000 E11.800
G0 E8.800 F3000.000
G0 X1.283 Y6.720 Z1.400 F12000.000
G0 E11.800 F3000.000
G1 X0.685 Y6.673 Z1.410 F3000.000 E11.829
G1 X-1.708 Y6.487 Z1.420 F3000.000 E11.947
G1 X-3.961 Y4.506 Z1.430 F3000.000 E12.094
G1 X-5.018 Y2.619 Z1.440 F3000.000 E12.201
G1 X-5.776 Y0.754 Z1.450 F3000.000 E12.299
G1 X-5.842 Y-2.260 Z1.460 F3000.000 E12.448
G1 X-5.703 Y-4.054 Z1.470 F3000.000 E12.536
G1 X-4.091 Y-5.434 Z1.480 F3000.000 E12.640
G1 X-1.007 Y-6.397 Z1.490 F3000.000 E12.799
G1 X0.512 Y-6.580 Z1.500 F3000.000 E12.874
G1 X2.606 Y-6.417 Z1.510 F3000.000 E12.977
G1 X4.998 Y-6.231 Z1.520 F3000.000 E13.095
G1 X6.424 Y-5.218 Z1.530 F3000.000 E13.181
G1 X6.284 Y-3.423 Z1.540 F3000.000 E13.269
G1 X4.028 Y-1.492 Z1.550 F3000.000 E13.415
G1 X2.163 Y-0.734 Z1.560 F3000.000 E13.514
G1 X0.645 Y-0.552 Z1.570 F3000.000 E13.589
G1 X-1.150 Y-0.691 Z1.580 F3000.000 E13.678
G1 X-2.944 Y-0.831 Z1.590 F3000.000 E13.766
G0 E10.766 F3000.000
G0 X1.196 Y6.736 Z1.600 F12000.000
G0 E13.766 F3000.000
G1 X0.598 Y6.681 Z1.610 F3000.000 E13.796
G1 X-1.792 Y6.464 Z1.620 F3000.000 E13.914
G1 X-4.019 Y4.455 Z1.630 F3000.000 E14.061
G1 X-5.052 Y2.554 Z1.640 F3000.000 E14.167
G1 X-5.785 Y0.680 Z1.650 F3000.000 E14.266
G1 X-5.813 Y-2.335 Z1.660 F3000.000 E14.414
G1 X-5.650 Y-4.128 Z1.670 F3000.000 E14.503
G1 X-4.020 Y-5.486 Z1.680 F3000.000 E14.607
G1 X-0.924 Y-6.410 Z1.690 F3000.000 E14.765
G1 X0.597 Y-6.573 Z1.700 F3000.000 E14.841
G1 X2.688 Y-6.383 Z1.710 F3000.000 E14.944
G1 X5.079 Y-6.166 Z1.720 F3000.000 E15.062
G1 X6.491 Y-5.134 Z1.730 F3000.000 E15.148
G1 X6.328 Y-3.341 Z1.740 F3000.000 E15.236
G1 X4.047 Y-1.440 Z1.750 F3000.000 E15.382
G1 X2.173 Y-0.706 Z1.760 F3000.000 E15.481
G1 X0.652 Y-0.543 Z1.770 F3000.000 E15.556
G1 X-1.141 Y-0.706 Z1.780 F3000.000 E15.644
G1 X-2.933 Y-0.869 Z1.790 F3000.000 E15.733
G0 E12.733 F3000.000
G0 X1.108 Y6.751 Z1.800 F12000.000
G0 E15.733 F3000.000
G1 X0.512 Y6.689 Z1.810 F3000.000 E15.762
G1 X-1.876 Y6.441 Z1.820 F3000.000 E15.880
G1 X-4.077 Y4.402 Z1.830 F3000.000 E16.027
G1 X-5.084 Y2.488 Z1.840 F3000.000 E16.134
G1 X-5.793 Y0.605 Z1.850 F3000.000 E16.233
G1 X-5.782 Y-2.410 Z1.860 F3000.000 E16.381
G1 X-5.596 Y-4.201 Z1.870 F3000.000 E16.469
G1 X-3.949 Y-5.538 Z1.880 F3000.000 E16.573
G1 X-0.841 Y-6.421 Z1.890 F3000.000 E16.732
G1 X0.682 Y-6.565 Z1.900 F3000.000 E16.807
G1 X2.771 Y-6.348 Z1.910 F3000.000 E16.910
G1 X5.158 Y-6.100 Z1.920 F3000.000 E17.028
G1 X6.557 Y-5.050 Z1.930 F3000.000 E17.114
G1 X6.371 Y-3.259 Z1.940 F3000.000 E17.203
G1 X4.065 Y-1.387 Z1.950 F3000.000 E17.348
G1 X2.182 Y-0.678 Z1.960 F3000.000 E17.447
G1 X0.659 Y-0.535 Z1.970 F3000.000 E17.522
G1 X-1.132 Y-0.721 Z1.980 F3000.000 E17.611
G1 X-2.922 Y-0.907 Z1.990 F3000.000 E17.699
G0 E14.699 F3000.000
G0 X1.021 Y6.764 Z2.000 F12000.000
G0 E17.699 F3000.000
G1 X0.425 Y6.695 Z2.010 F3000.000 E17.729
G1 X-1.959 Y6.416 Z2.020 F3000.000 E17.847
G1 X-4.133 Y4.349 Z2.030 F3000.000 E17.994
G1 X-5.116 Y2.422 Z2.040 F3000.000 E18.100
G1 X-5.801 Y0.530 Z2.050 F3000.000 E18.199
G1 X-5.750 Y-2.485 Z2.060 F3000.000 E18.347
G1 X-5.541 Y-4.273 Z2.070 F3000.000 E18.436
G1 X-3.877 Y-5.588 Z2.080 F3000.000 E18.540
G1 X-0.758 Y-6.432 Z2.090 F3000.000 E18.699
G1 X0.767 Y-6.555 Z2.100 F3000.000 E18.774
G1 X2.853 Y-6.311 Z2.110 F3000.000 E18.877
G1 X5.236 Y-6.032 Z2.120 F3000.000 E18.995
G1 X6.622 Y-4.964 Z2.130 F3000.000 E19.081
G1 X6.412 Y-3.176 Z2.140 F3000.000 E19.169
G1 X4.083 Y-1.335 Z2.150 F3000.000 E19.315
G1 X2.190 Y-0.650 Z2.160 F3000.000 E19.414
G1 X0.666 Y-0.526 Z2.170 F3000.000 E19.489
G1 X-1.122 Y-0.735 Z2.180 F3000.000 E19.577
G1 X-2.910 Y-0.944 Z2.190 F3000.000 E19.666
G0 E16.666 F3000.000
G0 X0.933 Y6.777 Z2.200 F12000.000
G0 E19.666 F3000.000
G1 X0.338 Y6.700 Z2.210 F3000.000 E19.695
G1 X-2.042 Y6.390 Z2.220 F3000.000 E19.813
G1 X-4.189 Y4.295 Z2.230 F3000.000 E19.961
G1 X-5.147 Y2.356 Z2.240 F3000.000 E20.067
G1 X-5.807 Y0.455 Z2.250 F3000.000 E20.166
G1 X-5.718 Y-2.559 Z2.260 F3000.000 E20.314
G1 X-5.485 Y-4.344 Z2.270 F3000.000 E20.402
G1 X-3.804 Y-5.638 Z2.280 F3000.000 E20.507
G1 X-0.675 Y-6.441 Z2.290 F3000.000 E20.665
G1 X0.852 Y-6.545 Z2.300 F3000.000 E20.740
G1 X2.934 Y-6.274 Z2.310 F3000.000 E20.844
G1 X5.314 Y-5.964 Z2.320 F3000.000 E20.961
G1 X6.685 Y-4.878 Z2.330 F3000.000 E21.047
G1 X6.453 Y-3.093 Z2.340 F3000.000 E21.136
G1 X4.100 Y-1.282 Z2.350 F3000.000 E21.282
G1 X2.199 Y-0.622 Z2.360 F3000.000 E21.381
G1 X0.672 Y-0.518 Z2.370 F3000.000 E21.456
G1 X-1.113 Y-0.750 Z2.380 F3000.000 E21.544
G1 X-2.898 Y-0.982 Z2.390 F3000.000 E21.633
G0 E18.633 F3000.000
G0 X0.846 Y6.789 Z2.400 F12000.000
G0 E21.633 F3000.000
G1 X0.252 Y6.703 Z2.410 F3000.000 E21.662
G1 X-2.124 Y6.363 Z2.420 F3000.000 E21.780
G1 X-4.244 Y4.241 Z2.430 F3000.000 E21.927
G1 X-5.177 Y2.289 Z2.440 F3000.000 E22.034
G1 X-5.813 Y0.379 Z2.450 F3000.000 E22.132
G1 X-5.684 Y-2.633 Z2.460 F3000.000 E22.280
G1 X-5.429 Y-4.415 Z2.470 F3000.000 E22.369
G1 X-3.731 Y-5.687 Z2.480 F3000.000 E22.473
G1 X-0.591 Y-6.449 Z2.490 F3000.000 E22.632
G1 X0.936 Y-6.533 Z2.500 F3000.000 E22.707
G1 X3.015 Y-6.235 Z2.510 F3000.000 E22.810
G1 X5.391 Y-5.895 Z2.520 F3000.000 E22.928
G1 X6.748 Y-4.791 Z2.530 F3000.000 E23.014
G1 X6.493 Y-3.009 Z2.540 F3000.000 E23.102
G1 X4.116 Y-1.229 Z2.550 F3000.000 E23.248
G1 X2.206 Y-0.593 Z2.560 F3000.000 E23.347
G1 X0.679 Y-0.509 Z2.570 F3000.000 E23.422
G1 X-1.103 Y-0.764 Z2.580 F3000.000 E23.511
G1 X-2.885 Y-1.019 Z2.590 F3000.000 E23.599
M107
G91
G1 E-1 F300
G1 Z+0.5 E-5 X-20 Y-20 F9000
G28 X0 Y0
M84
G90
M104 S180
M117 Done                